mimetypes/scalable/application-x-glade.svg

<?xml version="1.0" standalone="no"?><!-- Generator: Gravit.io --><svg xmlns="http://www.w3.org/2000/svg" xmlns:xlink="http://www.w3.org/1999/xlink" style="isolation:isolate" viewBox="0 0 256 256" width="256" height="256"><switch><g><g id="application-mimetype"><g opacity="0.2"><path d=" M 78.924321 15.500025 C 43.627596 15.500025 39.829708 19.125398 40.002695 54.49353 L 40.002695 127.500014 L 40.002695 200.506441 C 39.829708 235.874573 43.627596 239.500004 78.924321 239.500004 L 177.081083 239.500004 C 212.377805 239.500004 216.002702 235.875035 216.002702 200.506441 L 216.002702 127.500014 L 216.002702 54.49353 C 216.002702 19.124994 212.377805 15.500025 177.081083 15.500025 L 78.924321 15.500025 Z " id="path1163" fill="none" vector-effect="non-scaling-stroke" stroke-width="4" stroke="rgb(0,0,0)" stroke-linejoin="miter" stroke-linecap="butt" stroke-miterlimit="4"/></g><defs><filter id="6fybI0bCCcY7WZRM2tTKKfn44Tq4LjV4" x="-200%" y="-200%" width="400%" height="400%" filterUnits="objectBoundingBox" color-interpolation-filters="sRGB"><feGaussianBlur xmlns="http://www.w3.org/2000/svg" stdDeviation="2.120027"/></filter></defs><g opacity="0.1" filter="url(#6fybI0bCCcY7WZRM2tTKKfn44Tq4LjV4)"><path d=" M 78.924315 16.5 C 43.627592 16.5 39.82971 20.125416 40.002699 55.493531 L 40.002699 128.5 L 40.002699 201.50647 C 39.82971 236.874573 43.627592 240.500001 78.924315 240.500001 L 177.081083 240.500001 C 212.377806 240.500001 215.084425 236.863068 216.002699 201.50647 L 216.002699 128.5 L 216.002699 55.493531 C 216.002699 20.124997 212.377806 16.5 177.081083 16.5 L 78.924315 16.5 Z " id="shadow" fill="rgb(0,0,0)"/></g><defs><filter id="f2UWLUfGRnT4jYvy7nNQxnifE8Bu8H4S" x="-200%" y="-200%" width="400%" height="400%" filterUnits="objectBoundingBox" color-interpolation-filters="sRGB"><feGaussianBlur xmlns="http://www.w3.org/2000/svg" stdDeviation="8.4801079"/></filter></defs><g opacity="0.3" filter="url(#f2UWLUfGRnT4jYvy7nNQxnifE8Bu8H4S)"><linearGradient id="_lgradient_233" x1="-0.0681490711308741" y1="0.03125" x2="0.9537210324437329" y2="1.0531201035746074" gradientTransform="matrix(176.005396,0,0,224,39.997303,16.5)" gradientUnits="userSpaceOnUse"><stop offset="0%" stop-opacity="0.58823532" style="stop-color:rgb(0,0,0)"/><stop offset="88%" stop-opacity="0" style="stop-color:rgb(0,0,0)"/><stop offset="100%" stop-opacity="1" style="stop-color:rgb(0,0,0)"/></linearGradient><path d=" M 78.924315 16.5 C 43.627592 16.5 39.82971 20.125416 40.002699 55.493531 L 40.002699 128.5 L 40.002699 201.50647 C 39.82971 236.874573 43.627592 240.500001 78.924315 240.500001 L 177.081083 240.500001 C 212.377806 240.500001 216.002699 236.875001 216.002699 201.50647 L 216.002699 128.5 L 216.002699 55.493531 C 216.002699 20.124997 212.377806 16.5 177.081083 16.5 L 78.924315 16.5 Z " id="blur" fill="url(#_lgradient_233)"/></g><path d=" M 78.924321 15.500025 C 43.627596 15.500025 39.829708 19.125398 40.002695 54.49353 L 40.002695 127.500014 L 40.002695 200.506441 C 39.829708 235.874573 43.627596 239.500004 78.924321 239.500004 L 177.081083 239.500004 C 212.377805 239.500004 216.002702 235.875035 216.002702 200.506441 L 216.002702 127.500014 L 216.002702 54.49353 C 216.002702 19.124994 212.377805 15.500025 177.081083 15.500025 L 78.924321 15.500025 Z " id="shape" fill="rgb(118,194,43)"/><g opacity="0.6"><path d=" M 78.924573 15.500025 C 43.627848 15.500025 39.829708 19.126032 40.002695 54.494165 L 40.002695 56.494138 C 39.829708 21.126005 43.627848 17.499998 78.924573 17.499998 L 177.080824 17.499998 C 212.377545 17.499998 216.002702 21.125601 216.002702 56.494138 L 216.002702 54.494165 C 216.002702 19.125571 212.377545 15.500025 177.080824 15.500025 L 78.924573 15.500025 Z " id="highlight" fill="rgb(255,255,255)"/></g><g opacity="0.1"><path d=" M 128.002691 15.500025 L 128.002691 239.500004 L 177.080824 239.500004 C 212.377531 239.500004 215.084421 235.863501 216.002702 200.506787 L 216.002702 127.500014 L 216.002702 54.493184 C 216.002702 19.124648 212.377531 15.500025 177.080824 15.500025 L 128.002691 15.500025 Z " id="right highlight" fill="rgb(255,255,255)"/></g><g opacity="0.2"><path d=" M 156.002703 239.500004 L 216.002702 179.500005 L 216.002702 201.983857 C 215.950394 235.97965 212.200019 239.500004 177.828601 239.500004 L 156.002703 239.500004 Z " id="clip" fill="rgb(255,255,255)"/></g></g><g id="Group"><path d=" M 129.568641 172.846406 L 72 145.498918 L 126.431359 116.848336 L 184 144.195825 L 129.568641 172.846406 Z " id="Path" fill="rgb(173,214,133)"/><path d=" M 129.568641 155.999035 L 72 128.651546 L 126.431359 100.000965 L 184 127.348454 L 129.568641 155.999035 Z " id="Path" fill="rgb(194,221,167)"/><path d=" M 129.568641 139.151664 L 72 111.804175 L 126.431359 83.153594 L 184 110.501082 L 129.568641 139.151664 Z " id="Path" fill="rgb(212,226,197)"/></g></g><foreignObject requiredExtensions="http://ns.gravit.io/"><gravitDesigner:gravitElementRef xmlns:gravitDesigner="http://ns.gravit.io/" xlink:href="#nA0etrVSFFLFuGwW5BYTfjFMP7Qw6Dz0"/></foreignObject></switch><gravitDesigner:gravitGraphicSource xmlns:gravitDesigner="http://ns.gravit.io/" id="nA0etrVSFFLFuGwW5BYTfjFMP7Qw6Dz0" version="1"><![CDATA[eMKcw41aacKvw6JYwpLDvSstwqo1wp9ewr3DtsK+wqQ0w5J4w5/DgQYDw4bClcKlwpHDtx3Dr8OGwqZVw799DAnDrz3CsjLCs192ZU/ClRECLsKOw7DCjcOwOSfDol7DuMOnw6J/Fh8WwpUTBcKLwqfDhcOfFx9+w7nDp3UgasOKwr56GMKpwpwuwp4HwrzCvGwDf8OxwqFrw7rDoGlRdcOtfMOCLwvDmFnDpcOGwrrCksKcwq3DtsOfw7NJP8ONTwLDmlLCnkjCnTvCj1vCq8KSwq7DgQdPwrDCkkRMw4wdLcOuw5VwPkXCnMKfwqHDn8KCL8KWwr8+w73CssOgJMKtMMK2K8ObA15cRcOZwq49I8KDw4nCn31tw4cABcK9w4nDksO4bFjCkwRrwq7Cs2rDplMuU8OLCS83wpzCjHTCssK3wq7DligYwr3CusOawo7Dq33DlcKXfMKQIyPCssOrwqF8woRbw4DDqsOcw4jDmXXChMOGw6PCr3Z2w6nCp8Kvw5EwJh3DgcOBLlXCj0JewpsDVwg8w4LCm8OjwqEKHQ86w63DnFs0w5cpw6xDNcK7R3NNw4zChhTCssOsw4VVB8KEdD/DmGHDlR9dwqZ1wpddwqLDpkdmT8KUGBnDucK6wpXDnMKiwrkmw6ZueXXChWvCmMKRPMK4wqLCisOtMcKpw5PCumfDiQZwJMKxWxMbbMOjw7jDksKKTV3Dn8OubsKzw4IjNHrCscK8wrhiw6ZIwozDqiFAwrfCp8OBwqJhwpbDrsKZSHZbGRbCssKzY8KZw5nCqcOcwq00esKFWcK3WV0twovDoTXDgMOrQMO8wpBjPGpEw58+d8OaIMONw7nCpcKILQFXworCrVTDq8KeQ8OddcOvwr/DmmUPwrfCmcKgw7gUw5zDsQDDrsKpUcKpwqFrw6EMaElTw6HDuRDDt07CrHDCt2jCrsKWwrXDtHrCm8KvwonCiR/DgMOHw6YOwqpiIcOkwoMmGsOsTMO1MB5LMQDDpcK2wpfDucKDWxHCt2jCrsKJwrlbw77DusOrw5PCognDgm7DrBYfwo59wp5fPzlHLy7CmwvDiMOnb8K7JsKcw5/DgMOPOE7CohDCjmAYwoAiJMKMwqBPw4DDvMO4w5LDsDPChsKRIAYSAE7DoMOgw7x4w7rCmcOAwrBnwpBEYAzCgyAMBkl8dnt0worDoEYwEMOEw6B5XsO/w5t2ZcK1w7gAPEPDs8O7w5zCmcKCw4sMw640TMKOwp3DumnDqC09w4Mkw4/DtcKXw68uPsKqOcKOBcOzw5MvwpfDiQHCv15GwobDmUvDqMOkbcOww5vDkycjwrdsw7zCoHk0c0/Ciw/DsDN5PXDDoMOTwoFjwpcvcsOvYsOSd8Odw7XCtCJffEB+f8KZw5/DpsKAw75rHsOxOMKJw6rDrcONMcOCw45kHXPDjhbCmMOTX8K3CXZcB8O6wpAcFsK/w43CtkEYSsKzwpYsw5bCisKpBTbDmcOsN000CgzDqsO4woZCwox0ZA/DlAR6S2Bxwp/DsMK3RcKow7NIw6NEUTknw51xwqDDtMK0w5tBw6XCiMKSVcODTmpFw4HCpcKlwpVEw5bCusKmBBNmecKDFCrDvsKjN8KiwpvDpQVSFMOFRkbDgxLDvCs6w43CrQ5VAjLDmMK5w5jCnsKcwpXCoU9Fwownw6IKFxjCgsOfw7fDkA1SMMKHwodGAVFlw7bDlsOVw4XDtys6w4U2bMOXwofDs37Clw8rw7HCjMOTw5tMXcKmw64aIMOzwrHCk8OWNcO5aldHNMO8SsO3w6EAHsKgbkMUwpBpwrnCu8KVwqJ1aMOjDxHDik17w4PCiEnDuRbDjXUKwoMyUMKccSPDiDUxDEVlw4bDncKVw6XDkmrDmRrDknw9ZMK0JGnCmsOQcWDDjsKCSnIrTsK0d8K3aD4lw6ZmecKVw4bCtUl/w6bDqsKcTkt/w6J9wp1RIwrDtMKTw7NSVMK7bUnCi0bCqiDCgS3DnGZFQ2zDtmJ5C8KwNMKwwocAW3bDmnkgbUbDk8OKE8Ocwo7CrA/ClsKGwqN0w63CpcOwQcKbw7LCuzTDosK0eTTDoMKifwnDsMOqw6rDtMKQw6PDssKsw7HDrADDp8ODwrYGwrR2EErCjiUDw4gcQsKhwpd0WT/Cv8Oaw6EPwrfCucOYWxZ7KDISw6vCkV3CjlnCkzzCqAxcbzHDk8KRwoLCnMK1bsORXC3Dv0HDvsOjw6U2f0rDjAPDuMOcwqHDjUYlWcOiQcKQZMKRwpZHYXk0w5bDp35ke8KGwqQ9w7MWw43Cp8OEw5zDgcO3ThECwp7DkRs3AcOowqI6KHYVwqEvDMO/DMKiM8KbcRgAAQgDIcKIAMOhwqfCnyHDoBnCuTIcwoMREMKdwrUKecOVwqE2dsO8w7LDtFbChcOAH8KnQsO/SnnDgMOnw7vDvAHClARQFMKEw57CrTwPAndTwqF1Fxo8w6dkw7FRXDvDqXEVwoQ8w6rCuMOCwrALTBl2wo7DsF3ChcOuccONbwPCr3vCjMOJw43Du8KGwrvCjsOPw4PDjXzDqWcSw4YxGCYvwqLCjsOhw6DDvVpaIQnCtcKQW2LCvMOUw4DCvsKVw6TCosONdE9NdC/DliPCocKUF8K/w73CuyrClhgsw4oKw55wPkjDo0pSJcONbVzCuMKIw7xWw4hNw5saw64Me8KPworDrcOVw6nCsMOBUyTCkSsoV3jClRVdw5xQwqUTAEJZw4w3w7V3wqjCmMKqwrAxccOYw5rCpMOOV8OMdsOTdyx0CsKqw40gwoXChMKfRn3DsTUVA8KpRsODY3jCpyY8w6lISTDClMKewr/ClQ/CkcKTV8KpG8KJw7dWw6o9KiYBwqJsw6jCpCZtw43Doz49GjLCsFpPXcOsDMKHw51YwojDhcK9MXzCj8KKaX0CEMK9w4d5Jg7CkcOkBMOvwrLCscKAIMOWwogCwq5Uwph6w7kdKibCgcK9wo/DpcOBw4nCjg/DoTlsMcONMxVaOcKowq1KcAzCncKOwrdZfRItw6bDtC0VQ8K9wr7Dr1BbPsOxwrHCtTzCjcKNCsKDw77DocOYwoHDtXLDpMOSw4HCl8K/wqZiw4bChMOKfHPDgD3Cm8OqYHzCmSbCkGIQRyLCh8KwwoLCiQwEw7oOFcKTwqYsPcKPXlVOXsKYcT7DrsOgRwnDlEkwwqtzXsOxw7J7w53Du8KrwqnDmMKFwrVvNQx+wrfChsO9wqfCpcOpw6nCm1LCqcO+w7TDj8KPwovDtsOjw6VyCMKCwoIIwoTCoiTCghIEQBBPHxfDoTh/w7Mzw7AMYATCiMKQAA7CgjBAw6AIeMO5asO6eMKJE8KAQQjCnT9eTsO8ZXZVXUbDp8OPw57DvMO6w7F1Sh8Xw7NYecK1wpjCnUMwCkPDs8OEbsKnP1/Cr8O1VcKLwpcTw4Fvwpx1wpHDhcKPwovDpjJddMK+S8O4RSwRGCcgECZ+e8OpEsObw5IgNmVuIcOwUcKRw53DmGDCrTTCsETDhcOvw6VGNnbDvsOxw5/DkWfCkHzDhlEAwoXDkTlHJAbCoQh2wr/Cmm3CtMKsw5XDulRqewYGMsOYwrrCm8OkwrPDqMOLwpbCpALDgcKhw5nCvlfCoX/Cv8OYbRzCgsKoch9FDkl0wohpYR1Nekgtwod9PijDmw7CuncNw69Zw6wqXT7CgRPCvRHCjsKkJMKvw5XDjR5qw6UsJHXDrcOsw7DCtTfDkMKLw7cvdid0wpYOwrHCpi1Uw4bCp3MNF8ODYcOUw4bCscOwwqHChBUUDMO8w5piwrcqwpcpKh/Cm31MDCsHFRBXFmhKMkrCvW/CncK5bV3CvH/CsVsNwqFxwpLDmkgXfcKkHMKXI1jCkD3DlMORKCttYMKtOyPCi8O3L3bCocKOCsOjYMK/PDPCh8KQw5jCnmjCmRgUZ35kwrLCqsOxwqc9wrx4w79iV8O1EMKfGXsjNMKlwowEw51twrtvw5nCnsO0woPCrcKlwoHCicOiwoDCi8O3L3Ztw5jCkijDg8KWNMKrwojCj8KIYsKcSMKpwo1ZOT1tDsK7UsKrwpTCry12c8ONPh08wpl3LMOYC8K9w57DpCw/wrB9GRsAwptZwrbDqsK4eMO/YsKXd0TCtDzCpGMow4HCkcOjw5jCqlRkwonDmVEyUsOyKx3CgsOiw4VfcMKxOzfCmcOVZcOHw6kPw7fClSBIPMONw5d4QsOgw5fCtWd1woTDsGPDmMKew5TDhnbCkHHCt8OiwrASwrJqKiPDuMOGTsOXdMO7wrDDtiwgPkvDuMK2w7HCgMKBwqdQw63CgA4MAiDCuB8fLcKlM1rDs31rw48rwovCgsKdwpTCvMOeYUxRd1vDm3HCo05YwoZDUsOFMcKxwofCo3zCh2XCmC0iKcO3NcO2wpnCuMOqw6I9KyAHa8OIcUrDpsOrw412w6fDqsKqwqFzwpMbwoDDtHfCsMOPw550G1bCtQbDkwfCikLChFfCtcKxw5HCrCldw65xLsK3w5DCocO+DsO2w7HDgcKAFGYPwqbCokwLwo0wwq0oKDF5FVQzbXsew4LDs3fCsMOPT8Kmwr3DiFFQScOracODHUQTWsK2W8KfFsKCc8OJwqoiwrDDuSbDu8O6woccD3RBW0pkw4/CvQ1FwoIKw5UHw6XCjkxpw5A7w5DCoG7Ch8O0wp/Ch8OzIcK5F8O8F8OMd07CtMO4w4F7O3N3w7B0e8O+wqnDsMKnwpTDjcOnJcKxFMOxdEx7wp5Zw6lKZkMIDBYOwr1Rw7Vzw6/ChEfDunjDn3o5wpFfLMKJw5hbwq0kw7cwwrbDojoqCMK1wqXCqMKwwqnCjS7CmWNRK8KMbMOgPF7DnhvDqisjXMOjwrPCksOobSPCn3txwpVMwrzCtcKyR8KJw4xjAsKww45cw6ESwqzCjsK5w7ppLcOHw6Agwotvw4nCtRnDuBdXw5cAbVF/E8KgwrXDpjp0FAvCvkw5wqnDpcOLdsOfW8K8wpYyVsKQUU3DmcOeYXwNw7BueXF1dmdyVQ/CrsOowrPCm8OHLsK4w5JEdcKoKwdrLMOyKBbCtkTDr3HDk8OVw5DDrX1JRMONw6TCqsOewrjCujLCon0IMCYwbsOFSzUpQsKqGWVKVnTCrcKGw7TCsU4fwpfCgMOBwpVvw4k1E8OYecOgacO2wpB2wonCtwXCphQgJREze8KJw4vDikhRwpUjw6xXw6EmwpgXw4/DiEPCiTrCvcKmw70aw6BjwonDssKyw5XDhMOVwoVsMsO0wojCn0ELw6EAJDQnH8OVwrYTwppCwqvDm8Kswq4Bw75VSlTCnERxPj/Cu8K3wqTDhX44acO/w4XChghww5vCiiXCoU9rIsKQw7xDGyLCscKJwojCrMOCwp88Qm3DpMKUwo8za8OsdsKcJsOoOMKsUcKpFz9oQ8OXdnPDmVFqB8KwwpMaIcKFfcOFJsOnwr0lHg/DsCTDm8K5w7I+bUBbScO4DA4wwpVKZ2Ffwp4iY8OFw67DjEo4GcKYwqbCrcKLw6nChFLCosOYwqdXGF3DrR7Ci8KQcsKCwqFxN8OJTF9pwqLDlAssf8OKPMK0RlDCjMKych0NX8Ohw7doB8OAwq1MQQzCnw3CmVEtQ07DnMO0wopdBB3Doncww5Midy3Cgk5fLF7DgMObw6LDhcKDPh3Do3DDlsKsw5fCocKYe8OBABLCp2xswpDDtTFncibDhG9Iw5bDuzExwqLDsMKbwq3DozbClg3DmsOICFvDryDCjmpNw4BJwrDClQEpacOKwq1qw5XCil/DrVLDqC0vS8KITBnCtyXClX0TwpvCk8OOUMOlw4BqwrMGw4x9w77DpC7Cm8KHw5bCscO6Ni9nKMOEw642wqQDwrHDjcK2w7x2wqXDrMKGwrZMw7lCw4zDlUAzw6vCu8KGXRPDs1fDoWVzw6HDpMOfwr7DiMOOH8KxUcO5Z8Kycxs2w6jCpmHDl8KCJsKgIsOCwp1hwoLCoVjCmMOVC8KKdcKWIcOTP8KwwrPCoV0ZEcOBwrB2w7LCpcKhGQRaw6vDoRIQeVlMB27DhcKGw5/DkcK4Pi4bw6vDvcOKNgPCoEYxwq7DkcKEJFXCnMKlwqnDsnUuE2PDgsKgw5bDuk3Do8O6QMKNw77CsMK2G8KSwqbDvMKSN8OqwrXDqQ/CvsOUFsKew43CrsOswoPCoMKuK8O+wqFxbV7CqXHCrcKtwo/CjcKrQsOKw4A+Xi0Fwr5PQMKawpN9TcOJw4LCsXHDq8OTesKzwpTDjcO7InhcfsOWwrh+woHDu3rCsRVFw4pzw5bDqsKyE0TDnWTCgTIpwqMmwoI8Rk9dw4HDvA7DrsKvdsOawpbCjUrDucKEwq3Dp8OCwpjChEDDicKlY8OeN35awqxWwqfDjcOyO8K4wo/DigY2IsOsSmXCjxwYTsKQwpnDuw1YAsKWwrfDkmRjwrfDnMO8wqUaV8K3w6zCusKyw7gyw6V+fBfDu8O/SznDpnTDlDYlwol0fgLChRsWc8KLalPDoj7Cs8KsNcO/wqxiw5ADw6XDkH3DhAfCoQLDiMOqw5zDmQJ8KcO1w7TDpMOQwqVxTnzCtw7CrMOVw7sow4fDrMK3w5lnIMKdQCjCtmHDvsKswqc8PsK1O8KtwpHCqQluVBp1V0zDncK4w7wrwowScsKfwrzDmsOlwqXClMOsw5fDlAYTGMOKZsK4wrjDmMKew7bClSxlw4vDkSNRDMKLXsOtw6rCpcO+dsKHJwQhIFrCmhE8EkzDqknDgn4UwqTDksOKe0ZxwoVhwpnDnRtOw59Owo3DgV3CvSDDmT4iw7hnU1/Cn1fCtcKUNsK6FUzDtGF0woVlMMKMwr5BSF7DrwQpEcK0L20wGsK+w7LDq08uIV7CnlR/KsKIw7EbwojCkU/Du8OJIMO6wocwXMOUBVDDgsOKbsOfG8KDcQjCk8K9R0Ucw47DjsKtw505Xwpqw7DCgGEFD1Jnw7DCknXDrMKtEXQJagjCqUzCvF1vwoLCpsKjwoRDc11Gw75nw5PDr1RVwp54TsKXwpTDh8Kfwotkw67Dg8KmT3tBw7cpw4bDgMOIwptbUGAVw4rCkWRKw6BKdVVyQcOUw4bCg8Okw5TCh8O4JcK9w5/DuS8lwopiwqjDoURRwpFKwrxsw5wOw7ReP8OywrHDnsOHwrEjw5XDh8OEDE9qw43DgcKlGsKVUnQwbz/CsDDClMO+aFcKbRYWckpvw4LCpMOiFGrCp8OIaU/Cr3vCiRHCt2fCq8OTH8Otw5gXO8OkwrTDmQ9gU8KtGRpASxg7czjDoDrDssOIw5DDhTLCo07DisKLw53DsGhnwoDDoMO5HGACTMKEK8KZQ8K5IGzClxNTDk0hIm0AQMOvwqbDlMOPEMOxwowTCAwBCMKCwoDDswFcflzCgcKfMRzDhsOnARglYRgEwp8gw7wZAlFswr7DjyhKw4wHPMOfURB5woYhFCIBwpQEARzCg0jDognCnMK9AW8Pw6wJRMKQZwLCmcK9woEAwoLDjcOeAcO0w5cfwrHDjcKHw4NPEMKIPMKBw7DCm33CvlTDrFcqw6XCqz3Chxo6RXpuExRHBlTDvUMWwrVjAT/DoH7CsnrCiMKYRl4+A2fCtsKtw7vDkR4hOsKHwrfCvMKpDUvDvsKQwr1zwqPDo8O3ECoJwqFiO2VQOAfChnU/RE1swrk+MMK+w5FNw7vCjWFnX8KDEMKWDRvCmcOvZzkHw4Yiw5sEw4vCqCDDqk0dw7QrwrRSPcKrw7sawoTCtis/QMOVCHPCksK9UWYmEgrChVLDocOHLcKZc8KebgPDoMOXIMKEwrtJcGJzQsO2Tz4ZwqPCocK5w53CjcK6f8OkdsOVacODwrLCnMO+w6dBw6jDssO8ISAhwpEnCALCn0AMw7/Cq8KBRMOpSMOaO1UAEMK7ZEFgw6dcwqcdwo0yLcKMwpAUw6rDjBVfA0kIwoYuw4F3woBtw7rDmnRyScOLwoBTMsO0GDxRw7xlw6sKXwPCicKSw4smw6TCiFvDsDAgYcOcw5s8FcOEEHrDmHvCm2LCuwMBw6ZrIMKBwovCocOecsO4KcOfKHsFP295ZWMow5UBFsKVwqVgCMOUw7vDu8OSHw3CknvDhcK8HcOww5PDrMOyGUQhDCJIFCZIwphEfgTChCAQwpohNMKrGMO5wp/Cg8OQS8KOw4BnwohEScO0UjdJGMKEYALCvsOWw5cvDEMIfsO5w40XQhEYw4ZJAsK/ZAl/w4YRw6JacxEEwoLCgFkYw5/DvsKjTsOcFMOLIRsHw5xECG7Dh8KewqRwwrPDig5iBMOSwo4Bw7LDtXUWP11KKMOaw7HDvmbCsCzCqMKLwrbDiMOZZjrCvcKzeXALe8KjwrnCm8Oqw4vDv8KAw6Z+BULCsUsbw7fDqcK1wrzDvB57wrnDk8Kuwpd9wqHDt8KZw4fCr13DlUvCucOXwp0ow7gbwrjDuMOtw78Aw4zCu8OJw4k=]]></gravitDesigner:gravitGraphicSource></svg>

<svg xmlns="http://www.w3.org/2000/svg" xmlns:xlink="http://www.w3.org/1999/xlink" style="isolation:isolate" width="256" height="256"><switch><g><path d="M78.924 15.5c-35.296 0-39.094 3.625-38.921 38.994v146.012c-.173 35.369 3.625 38.994 38.921 38.994h98.157c35.297 0 38.922-3.625 38.922-38.994V54.494c0-35.369-3.625-38.994-38.922-38.994H78.924z" fill="none" vector-effect="non-scaling-stroke" stroke-width="4" stroke="#000" opacity=".2"/><defs><filter id="a" x="-200%" y="-200%" width="400%" height="400%" filterUnits="objectBoundingBox" color-interpolation-filters="sRGB"><feGaussianBlur xmlns="http://www.w3.org/2000/svg" stdDeviation="2.12"/></filter></defs><path d="M78.924 16.5c-35.296 0-39.094 3.625-38.921 38.994v146.012c-.173 35.369 3.625 38.994 38.921 38.994h98.157c35.297 0 38.003-3.637 38.922-38.994V55.494c0-35.369-3.625-38.994-38.922-38.994H78.924z" opacity=".1" filter="url(#a)"/><defs><filter id="b" x="-200%" y="-200%" width="400%" height="400%" filterUnits="objectBoundingBox" color-interpolation-filters="sRGB"><feGaussianBlur xmlns="http://www.w3.org/2000/svg" stdDeviation="8.48"/></filter></defs><g opacity=".3" filter="url(#b)"><linearGradient id="c" x1="-.068" y1=".031" x2=".954" y2="1.053" gradientTransform="matrix(176.0054 0 0 224 39.997 16.5)" gradientUnits="userSpaceOnUse"><stop offset="0%" stop-opacity=".588"/><stop offset="88%" stop-opacity="0"/><stop offset="100%"/></linearGradient><path d="M78.924 16.5c-35.296 0-39.094 3.625-38.921 38.994v146.012c-.173 35.369 3.625 38.994 38.921 38.994h98.157c35.297 0 38.922-3.625 38.922-38.994V55.494c0-35.369-3.625-38.994-38.922-38.994H78.924z" fill="url(#c)"/></g><path d="M78.924 15.5c-35.296 0-39.094 3.625-38.921 38.994v146.012c-.173 35.369 3.625 38.994 38.921 38.994h98.157c35.297 0 38.922-3.625 38.922-38.994V54.494c0-35.369-3.625-38.994-38.922-38.994H78.924z" fill="#76C22B"/><path d="M78.925 15.5c-35.297 0-39.095 3.626-38.922 38.994v2C39.83 21.126 43.628 17.5 78.925 17.5h98.156c35.297 0 38.922 3.626 38.922 38.994v-2c0-35.368-3.625-38.994-38.922-38.994H78.925z" fill="#FFF" opacity=".6"/><path d="M128.003 15.5v224h49.078c35.297 0 38.003-3.636 38.922-38.993V54.493c0-35.368-3.625-38.993-38.922-38.993h-49.078z" fill="#FFF" opacity=".1"/><path d="M156.003 239.5l60-60v22.484c-.053 33.996-3.803 37.516-38.174 37.516h-21.826z" fill="#FFF" opacity=".2"/><g><path d="M129.569 172.846L72 145.5l54.431-28.65L184 144.195l-54.431 28.65z" fill="#ADD685"/><path d="M129.569 155.999L72 128.652 126.431 100 184 127.348 129.569 156z" fill="#C2DDA7"/><path d="M129.569 139.152L72 111.804l54.431-28.65L184 110.5l-54.431 28.65z" fill="#D4E2C5"/></g></g><foreignObject requiredExtensions="http://ns.gravit.io/"> </foreignObject></switch> </svg>
